X: 38067
T: Spirit Of The Dance, The
R: jig
M: 6/8
K: Gmajor
G2D E2D|G2D E2D|GAB c2B|A2G FED|G2D E2D|
G2D E2D|1 GAB cBA|cAF G3:|2 GAB cde|cAF G3||
|:DGB c2A|B2G A3|DGB dBd|c2A B2A|
GAB c2A|B2G A3|Bcd BAG|B2A GFE:|

